svgs/regular/face-beam-hand-over-mouth.svg

<svg xmlns="http://www.w3.org/2000/svg" viewBox="0 0 512 512"><!--! Font Awesome Pro 6.5.1 by @fontawesome - https://fontawesome.com License - https://fontawesome.com/license (Commercial License) Copyright 2023 Fonticons, Inc. --><path d="M256 48C141.1 48 48 141.1 48 256c0 59 24.6 112.2 64 150.1v10.7c0 21.9 5.5 42.5 15.3 60.5C51.2 433 0 350.5 0 256C0 114.6 114.6 0 256 0S512 114.6 512 256c0 113.1-73.3 209.1-175.1 242.9l49-49c11.7-11.7 16.1-27.9 13.2-43C439.1 369 464 315.4 464 256c0-114.9-93.1-208-208-208zM217.6 228.8l0 0 0 0-.2-.2c-.2-.2-.4-.5-.7-.9c-.6-.8-1.6-2-2.8-3.4c-2.5-2.8-6-6.6-10.2-10.3c-8.8-7.8-18.8-14-27.7-14s-18.9 6.2-27.7 14c-4.2 3.7-7.7 7.5-10.2 10.3c-1.2 1.4-2.2 2.6-2.8 3.4c-.3 .4-.6 .7-.7 .9l-.2 .2 0 0 0 0 0 0c-2.1 2.8-5.7 3.9-8.9 2.8s-5.5-4.1-5.5-7.6c0-17.9 6.7-35.6 16.6-48.8c9.8-13 23.9-23.2 39.4-23.2s29.6 10.2 39.4 23.2c9.9 13.2 16.6 30.9 16.6 48.8c0 3.4-2.2 6.5-5.5 7.6s-6.9 0-8.9-2.8l0 0 0 0zm160 0l0 0-.2-.2c-.2-.2-.4-.5-.7-.9c-.6-.8-1.6-2-2.8-3.4c-2.5-2.8-6-6.6-10.2-10.3c-8.8-7.8-18.8-14-27.7-14s-18.9 6.2-27.7 14c-4.2 3.7-7.7 7.5-10.2 10.3c-1.2 1.4-2.2 2.6-2.8 3.4c-.3 .4-.6 .7-.7 .9l-.2 .2 0 0 0 0 0 0c-2.1 2.8-5.7 3.9-8.9 2.8s-5.5-4.1-5.5-7.6c0-17.9 6.7-35.6 16.6-48.8c9.8-13 23.9-23.2 39.4-23.2s29.6 10.2 39.4 23.2c9.9 13.2 16.6 30.9 16.6 48.8c0 3.4-2.2 6.5-5.5 7.6s-6.9 0-8.9-2.8l0 0 0 0 0 0zm-78.3 47.9c6.2 6.2 6.2 16.4 0 22.6L248 350.6c-2.6 2.6-2.6 6.8 0 9.4s6.8 2.6 9.4 0l67.3-67.3c6.2-6.2 16.4-6.2 22.6 0s6.2 16.4 0 22.6L280 382.6c-2.6 2.6-2.6 6.8 0 9.4s6.8 2.6 9.4 0l51.3-51.3c6.2-6.2 16.4-6.2 22.6 0s6.2 16.4 0 22.6L312 414.6c-2.6 2.6-2.6 6.8 0 9.4s6.8 2.6 9.4 0l19.3-19.3c6.2-6.2 16.4-6.2 22.6 0s6.2 16.4 0 22.6l-56.8 56.8C288.7 502 264.4 512 239.2 512c-52.6 0-95.2-42.6-95.2-95.2V384 330.4c0-11 9-20 20-20s20 9 20 20v19.7c0 7.1 8.6 10.7 13.7 5.7l79-79c6.2-6.2 16.4-6.2 22.6 0z"/></svg>

<svg xmlns="http://www.w3.org/2000/svg" viewBox="0 0 512 512"><!--! Font Awesome Pro 6.1.1 by @fontawesome - https://fontawesome.com License - https://fontawesome.com/license (Commercial License) Copyright 2022 Fonticons, Inc. --><path d="M256 47.1C141.1 47.1 48 141.1 48 255.1C48 314.1 72.55 368.2 112 406.1V416.8C112 438.7 117.5 459.3 127.3 477.4C51.17 432.1 0 350.5 0 256C0 114.6 114.6 0 256 0C397.4 0 512 114.6 512 256C512 369.1 438.7 465.1 336.9 498.9L385.9 449.9C397.6 438.2 402 422 399.1 406.9C439.1 369 464 315.4 464 256C464 141.1 370.9 48 256 48V47.1zM217.6 228.8L217.6 228.8L217.4 228.5C217.2 228.3 217 228 216.7 227.6C216 226.8 215.1 225.7 213.9 224.3C211.4 221.4 207.9 217.7 203.7 213.1C194.9 206.2 184.8 200 176 200C167.2 200 157.1 206.2 148.3 213.1C144.1 217.7 140.6 221.4 138.1 224.3C136.9 225.7 135.1 226.8 135.3 227.6C134.1 228 134.8 228.3 134.6 228.5L134.4 228.8L134.4 228.8C132.3 231.6 128.7 232.7 125.5 231.6C122.2 230.5 120 227.4 120 223.1C120 206.1 126.7 188.4 136.6 175.2C146.4 162.2 160.5 151.1 176 151.1C191.5 151.1 205.6 162.2 215.4 175.2C225.3 188.4 232 206.1 232 223.1C232 227.4 229.8 230.5 226.5 231.6C223.3 232.7 219.7 231.6 217.6 228.8V228.8zM377.6 228.8L377.4 228.5C377.2 228.3 377 228 376.7 227.6C376 226.8 375.1 225.7 373.9 224.3C371.4 221.4 367.9 217.7 363.7 213.1C354.9 206.2 344.8 200 336 200C327.2 200 317.1 206.2 308.3 213.1C304.1 217.7 300.6 221.4 298.1 224.3C296.9 225.7 295.1 226.8 295.3 227.6C294.1 228 294.8 228.3 294.6 228.5L294.4 228.8L294.4 228.8C292.3 231.6 288.7 232.7 285.5 231.6C282.2 230.5 280 227.4 280 224C280 206.1 286.7 188.4 296.6 175.2C306.4 162.2 320.5 152 336 152C351.5 152 365.6 162.2 375.4 175.2C385.3 188.4 392 206.1 392 224C392 227.4 389.8 230.5 386.5 231.6C383.3 232.7 379.7 231.6 377.6 228.8L377.6 228.8zM299.3 276.7C305.6 282.9 305.6 293.1 299.3 299.3L248 350.6C245.4 353.2 245.4 357.4 248 360C250.6 362.6 254.8 362.6 257.4 360L324.7 292.7C330.9 286.4 341.1 286.4 347.3 292.7C353.6 298.9 353.6 309.1 347.3 315.3L280 382.6C277.4 385.2 277.4 389.4 280 392C282.6 394.6 286.8 394.6 289.4 392L340.7 340.7C346.9 334.4 357.1 334.4 363.3 340.7C369.6 346.9 369.6 357.1 363.3 363.3L312 414.6C309.4 417.2 309.4 421.4 312 424C314.6 426.6 318.8 426.6 321.4 424L340.7 404.7C346.9 398.4 357.1 398.4 363.3 404.7C369.6 410.9 369.6 421.1 363.3 427.3L306.5 484.1C288.7 501.1 264.4 512 239.2 512C186.6 512 144 469.4 144 416.8V330.4C144 319.4 152.1 310.4 164 310.4C175 310.4 184 319.4 184 330.4V350.1C184 357.2 192.6 360.8 197.7 355.7L276.7 276.7C282.9 270.4 293.1 270.4 299.3 276.7L299.3 276.7z"/></svg>
